X:1
T:Oyster River Hornpipe
C:traditional, as played by Tripping Up Stairs
Z:transcribed by Terry Traub 6-30-02
Z:from the recording "Tripping up Stairs" (Bob Mills, John Pranio, Jan Drechsler)
M:2/4
L:1/16
K:G
|:D2|"G"G2D2 G2A2 |"C"B2e2 e2fe|"G"d2B2 A2GA|"C"B2A2 "D"A2D2|!
"G"G2D2 G2A2 |"C"B2e2 e2fe|"D"d2B2 A2BA|"G"G4-G2 :|
|:ef|"C"g2ga "D"gfef|"Em"gfg2 "D"a2ga|"C"b2b2 "D"a2ga|"G"b2ba gfef|
"C"gfga "D"gfef|"Em"gfg2 "D"a2ga|"C"b2b2 "D"a2ga|"G"b2g2 g2 :|
